assets/img/icons/duotone-icons/Layout/Layout-3d.svg

<?xml version="1.0" encoding="UTF-8"?>
<svg width="24px" height="24px" viewBox="0 0 24 24" version="1.1" xmlns="http://www.w3.org/2000/svg" xmlns:xlink="http://www.w3.org/1999/xlink">
    <!-- Generator: Sketch 52.2 (67145) - http://www.bohemiancoding.com/sketch -->
    <title>Stockholm-icons / Layout / Layout-3d</title>
    <desc>Created with Sketch.</desc>
    <g id="Stockholm-icons-/-Layout-/-Layout-3d" stroke="none" stroke-width="1" fill="none" fill-rule="evenodd">
        <rect id="bound" x="0" y="0" width="24" height="24"></rect>
        <path d="M1.5,5 L4.5,5 C5.32842712,5 6,5.67157288 6,6.5 L6,17.5 C6,18.3284271 5.32842712,19 4.5,19 L1.5,19 C0.671572875,19 1.01453063e-16,18.3284271 0,17.5 L0,6.5 C-1.01453063e-16,5.67157288 0.671572875,5 1.5,5 Z M18.5,5 L22.5,5 C23.3284271,5 24,5.67157288 24,6.5 L24,17.5 C24,18.3284271 23.3284271,19 22.5,19 L18.5,19 C17.6715729,19 17,18.3284271 17,17.5 L17,6.5 C17,5.67157288 17.6715729,5 18.5,5 Z" id="Combined-Shape" fill="#335EEA"></path>
        <rect id="Rectangle-7-Copy-2" fill="#335EEA" opacity="0.3" x="8" y="5" width="7" height="14" rx="1.5"></rect>
    </g>
</svg>

<svg width="24" height="24" viewBox="0 0 24 24" xmlns="http://www.w3.org/2000/svg"><g fill="none" fill-rule="evenodd"><path d="M0 0h24v24H0z"/><path d="M1.5 5h3A1.5 1.5 0 016 6.5v11A1.5 1.5 0 014.5 19h-3A1.5 1.5 0 010 17.5v-11A1.5 1.5 0 011.5 5zm17 0h4A1.5 1.5 0 0124 6.5v11a1.5 1.5 0 01-1.5 1.5h-4a1.5 1.5 0 01-1.5-1.5v-11A1.5 1.5 0 0118.5 5z" fill="#335EEA"/><rect fill="#335EEA" opacity=".3" x="8" y="5" width="7" height="14" rx="1.5"/></g></svg>
